X: 0
T: MY OLD AUNT SARAH
B: Oliver Ditson "The Boston Collection of Instrumental Music" 1910 p.66 #1
F: http://conquest.imslp.info/files/imglnks/usimg/8/8f/IMSLP175643-PMLP309456-bostoncollection00bost_bw.pdf
M: 2/4
L: 1/16
K: G
D2 |\
DGGB Adde | ddcA dd zd | DGGB Adde | ddcA AG zD |\
DGGB Adde | ddcA dd zd | DGGB Adde | ddcA AG zg |
=fd zg fd zg | =fefg fd z^c | dgg^f ggg2 | ggag gdz2 |\
ggz2 dd zA | B2G2 FDz2 | G2A2 B2c2 | decA AGz2 |
Gg=fd c2AF | Gg=fd c2AF | GBAc Bdd2 | ddcA G2 |]

%%sep 1 1 500
%%sep 1 1 500
